X:1
T:Title
%%score { 1 | ( 2 3 ) }
L:1/8
Q:1/4=88
M:4/4
K:D
V:1 treble nm="Grand Piano"
V:2 bass 
V:3 bass 
V:1
 [DB]3 ^A [DB]3 D | [B,^D][=CE][EG][E=c] [=DB]3 [DB] | [Fd]3 [E=c] [DB]3 [DB] | %3
w: Adam~Geibel * * *|||
 [CB][CE][CB][C^A] [=C=A]3 ^A | [DB]3 [C^A] [DB]3 [B,G] | [=FG][FG][FA][FG] [E=c]3 [Ec] | %6
w: |||
 [Gc]3 [Gc] [Gd]2 [DB]2 |[M:5/4] [CA]EBE A6 |[M:4/4] B2 ^AB [^G=c]2 [GB]2 | B>E A2- AA^GA | %10
w: ||||
 [DFd]2 [EF=c]2 [DFB]2 [=CFA]2 | [CE^A]>[DGB] [DGB]2- [DGB]GGG | [E=c]3 [Ec] [Ec][Ec]GA | %13
w: |||
 B4- B[GB][^Ge][Gd] | %14
w: |
 =cE z2 c2 E[Q:1/4=77]c[Q:1/4=87][Q:1/4=85][Q:1/4=84][Q:1/4=83][Q:1/4=81][Q:1/4=80][Q:1/4=78][Q:1/4=76][Q:1/4=74][Q:1/4=73][Q:1/4=72][Q:1/4=70][Q:1/4=69][Q:1/4=67] | %15
w: |
 [FB]3 [FA] [B,DG]4 |] %16
w: |
V:2
 z D,D,C z D,G,B, | z G,E,G, z D,G,D, | z D,F,D, z D,G,D, | z G,E,G, [D,F,]E, z C | %4
 z D,G,D, z D,G,D, | z G,B,G, z G,=CG, | z A,A,A, [D,B,]2 z2 |[M:5/4] z CCC [D,F,=C]6 | %8
[M:4/4][K:treble] [G,DG]2 [G,CG][G,DG][K:bass] [E,E]2 [E,D]2 | %9
 [A,CE]>[A,C] [A,CE]2- [A,CE][A,CE][A,CE][A,CE] | D,2 D,2 D,2 D,2 | G,>G, G,2- G,G,G,G, | %12
 [=C,G,]3 [C,G,] [C,G,][C,G,][K:treble][=CE][C^DG] | [G,DG]4- [G,DG][K:bass][=F,D][E,B,][E,E] | %14
 [A,EA][A,=C] z2[K:bass] [A,CE]2 [A,C][A,CE] | [D,D]3 [D,=C] [G,,G,]4 |] %16
V:3
 G,,4 G,,4 | =C,4 G,,4 | D,,4 G,,4 | A,,4 z2 D,2 | G,,4 G,,4 | G,,4 =C,4 | A,,4 z4 | %7
[M:5/4] [A,,G,]4 z2 z4 |[M:4/4][K:treble] x4[K:bass] x4 | x8 | x8 | x8 | x6[K:treble] x2 | %13
 x5[K:bass] x3 | x4[K:bass] x4 | x8 |] %16

